assets/img/grapic.svg

<svg xmlns="http://www.w3.org/2000/svg" viewBox="0 1931.3 4252 1869" enable-background="new 0 1931.3 4252 1869"><path opacity=".15" stroke="#000" stroke-width=".5" stroke-miterlimit="10" enable-background="new" d="M283.7 3343.1h3731.1" fill="none"/><g stroke="#000" stroke-width=".5" stroke-miterlimit="10" stroke-dasharray="3" fill="none"><path opacity=".15" enable-background="new" d="M905.4 3343.1v-1344.5m622 1344.5v-1344.5M2149.1 3344.7v-1344.5M2771.2 3343.1v-1344.5m621.6 1344.5v-1344.5M4014.9 3344.7v-1344.5"/></g><text transform="translate(193.708 3390.606)" font-family="'FuturaPT-Book'" font-size="55.79">0</text><text transform="translate(133.852 3222.479)" font-family="'FuturaPT-Book'" font-size="55.79">1</text><text transform="translate(162.144 3222.479)" font-family="'FuturaPT-Book'" font-size="55.79">00</text><text transform="translate(131.726 3054.349)" font-family="'FuturaPT-Book'" font-size="55.79">2</text><text transform="translate(162.014 3054.349)" font-family="'FuturaPT-Book'" font-size="55.79">00</text><text transform="translate(130.337 2886.22)" font-family="'FuturaPT-Book'" font-size="55.79">300</text><text transform="translate(130.337 2718.09)" font-family="'FuturaPT-Book'" font-size="55.79">400</text><text transform="translate(130.337 2549.968)" font-family="'FuturaPT-Book'" font-size="55.79">500</text><text transform="translate(130.337 2381.834)" font-family="'FuturaPT-Book'" font-size="55.79">600</text><text transform="translate(133.122 2213.707)" font-family="'FuturaPT-Book'" font-size="55.79">7</text><text transform="translate(162.213 2213.707)" font-family="'FuturaPT-Book'" font-size="55.79">00</text><text transform="translate(130.337 2045.578)" font-family="'FuturaPT-Book'" font-size="55.79">800</text><path opacity=".15" stroke="#000" stroke-width=".5" stroke-miterlimit="10" enable-background="new" d="M283.7 3343.1v-1344.9" fill="none"/><path opacity=".15" stroke="#000" stroke-width=".5" stroke-miterlimit="10" stroke-dasharray="3" enable-background="new" d="M283.7 3175.4h3731.1m-3731.1-168.2h3731.1m-3731.1-168.2h3731.1m-3731.1-168.1h3731.1m-3731.1-168.2h3731.1m-3731.1-168.2h3731.1m-3731.1-168.1h3731.1m-3731.1-168.2h3731.1" fill="none"/><path stroke="#D91C5C" stroke-width=".5" stroke-miterlimit="10" d="M1216.6 2923.1l-622.1 361.4m1243.8-437.1l-621.7 75.7m1243.7-143l-622.1 67.3m1243.8-168.2l-621.7 100.8m1243.7-672.6l-622 571.8" fill="none"/><path stroke="#000" stroke-miterlimit="10" d="M1826.3 2835.4h23.9v23.9h-23.9v-23.9zm622.1-67.3h23.9v23.9h-23.9v-23.9zm621.6-100.8h23.9v23.9h-23.9v-23.9z"/><text transform="translate(576.379 3484.001)" font-family="'FuturaPT-Book'" font-size="55.79">II</text><text transform="translate(1196.13 3484.001)" font-family="'FuturaPT-Book'" font-size="55.79">III</text><text transform="translate(1816.592 3484.001)" font-family="'FuturaPT-Book'" font-size="55.79">IV</text><text transform="translate(3066.106 3484.001)" font-family="'FuturaPT-Book'" font-size="55.79">II</text><text transform="translate(2444.308 3484.001)" font-family="'FuturaPT-Book'" font-size="55.79">I</text><text transform="translate(3685.853 3484.001)" font-family="'FuturaPT-Book'" font-size="55.79">III</text><text transform="matrix(0 -1 1 0 56.141 2421.838)" font-family="'FuturaPT-Book'" font-size="55.79">миллионов рублей</text><g opacity=".3"><path d="M2148.7 3399.7v164.2"/><path stroke="#000" stroke-width=".5" stroke-miterlimit="10" d="M2148.7 3399.7v143.5" fill="none"/><circle cx="2148.7" cy="3542" r="21.5"/></g><text transform="translate(1917.161 3647.77)" font-family="'FuturaPT-Book'" font-size="55.79">кварталы 2014-2015</text><text transform="translate(530.354 3221.189)" fill="#EC297B" font-family="'FuturaPT-Book'" font-size="55.79">+35</text><text transform="translate(1144.325 2846.601)" fill="#EC297B" font-family="'FuturaPT-Book'" font-size="55.79">+215</text><text transform="translate(1773.952 2780.646)" fill="#EC297B" font-family="'FuturaPT-Book'" font-size="55.79">+45</text><text transform="translate(2391.624 2716.882)" fill="#EC297B" font-family="'FuturaPT-Book'" font-size="55.79">+40</text><text transform="translate(3013.28 2597.334)" fill="#EC297B" font-family="'FuturaPT-Book'" font-size="55.79">+60</text><text transform="translate(3618.996 2059.36)" fill="#EC297B" font-family="'FuturaPT-Book'" font-size="55.79">+340</text><circle fill="#F9E600" cx="594.6" cy="3284.5" r="27.9"/><circle fill="#F9E600" cx="1216.6" cy="2923.1" r="27.9"/><circle fill="#F9E600" cx="1838.3" cy="2847.4" r="27.9"/><circle fill="#F9E600" cx="2461.9" cy="2780.4" r="27.9"/><circle fill="#F9E600" cx="3081.6" cy="2672.9" r="27.9"/><circle fill="#75E9FF" cx="3700.4" cy="2109.4" r="27.9"/></svg>

<?xml version="1.0" encoding="utf-8"?>
<!-- Generator: Adobe Illustrator 18.0.0, SVG Export Plug-In . SVG Version: 6.00 Build 0)  -->
<!DOCTYPE svg PUBLIC "-//W3C//DTD SVG 1.1//EN" "http://www.w3.org/Graphics/SVG/1.1/DTD/svg11.dtd">
<svg version="1.1" id="Layer_1" xmlns="http://www.w3.org/2000/svg" xmlns:xlink="http://www.w3.org/1999/xlink" x="0px" y="0px"
	 viewBox="0 1931.3 4252 1869" enable-background="new 0 1931.3 4252 1869" xml:space="preserve">
<path opacity="0.15" fill="none" stroke="#000000" stroke-width="0.5" stroke-miterlimit="10" enable-background="new    " d="
	M283.7,3343.1h3731.1"/>
<g>
	
		<path opacity="0.15" fill="none" stroke="#000000" stroke-width="0.5" stroke-miterlimit="10" stroke-dasharray="3" enable-background="new    " d="
		M905.4,3343.1V1998.6 M1527.4,3343.1V1998.6"/>
	
		<path opacity="0.15" fill="none" stroke="#000000" stroke-width="0.5" stroke-miterlimit="10" stroke-dasharray="3" enable-background="new    " d="
		M2149.1,3344.7V2000.2"/>
	
		<path opacity="0.15" fill="none" stroke="#000000" stroke-width="0.5" stroke-miterlimit="10" stroke-dasharray="3" enable-background="new    " d="
		M2771.2,3343.1V1998.6 M3392.8,3343.1V1998.6"/>
	
		<path opacity="0.15" fill="none" stroke="#000000" stroke-width="0.5" stroke-miterlimit="10" stroke-dasharray="3" enable-background="new    " d="
		M4014.9,3344.7V2000.2"/>
</g>
<text transform="matrix(1 0 0 1 193.7082 3390.6055)" font-family="'FuturaPT-Book'" font-size="55.7897">0</text>
<text transform="matrix(1 0 0 1 133.8517 3222.4792)" font-family="'FuturaPT-Book'" font-size="55.7897">1</text>
<text transform="matrix(1 0 0 1 162.1439 3222.4792)" font-family="'FuturaPT-Book'" font-size="55.7897">00</text>
<text transform="matrix(1 0 0 1 131.7265 3054.3494)" font-family="'FuturaPT-Book'" font-size="55.7897">2</text>
<text transform="matrix(1 0 0 1 162.0145 3054.3494)" font-family="'FuturaPT-Book'" font-size="55.7897">00</text>
<text transform="matrix(1 0 0 1 130.3365 2886.2195)" font-family="'FuturaPT-Book'" font-size="55.7897">300</text>
<text transform="matrix(1 0 0 1 130.3365 2718.0896)" font-family="'FuturaPT-Book'" font-size="55.7897">400</text>
<text transform="matrix(1 0 0 1 130.3365 2549.9675)" font-family="'FuturaPT-Book'" font-size="55.7897">500</text>
<text transform="matrix(1 0 0 1 130.3365 2381.8335)" font-family="'FuturaPT-Book'" font-size="55.7897">600</text>
<text transform="matrix(1 0 0 1 133.1224 2213.7075)" font-family="'FuturaPT-Book'" font-size="55.7897">7</text>
<text transform="matrix(1 0 0 1 162.2125 2213.7075)" font-family="'FuturaPT-Book'" font-size="55.7897">00</text>
<text transform="matrix(1 0 0 1 130.3365 2045.5776)" font-family="'FuturaPT-Book'" font-size="55.7897">800</text>
<path opacity="0.15" fill="none" stroke="#000000" stroke-width="0.5" stroke-miterlimit="10" enable-background="new    " d="
	M283.7,3343.1V1998.2"/>
<path opacity="0.15" fill="none" stroke="#000000" stroke-width="0.5" stroke-miterlimit="10" stroke-dasharray="3" enable-background="new    " d="
	M283.7,3175.4h3731.1 M283.7,3007.2h3731.1 M283.7,2839h3731.1 M283.7,2670.9h3731.1 M283.7,2502.7h3731.1 M283.7,2334.5h3731.1
	 M283.7,2166.4h3731.1 M283.7,1998.2h3731.1"/>
<path fill="none" stroke="#D91C5C" stroke-width="0.5" stroke-miterlimit="10" d="M1216.6,2923.1l-622.1,361.4 M1838.3,2847.4
	l-621.7,75.7 M2460.3,2780.1l-622.1,67.3 M3082,2679.2l-621.7,100.8 M3704,2107.4L3082,2679.2"/>
<path stroke="#000000" stroke-miterlimit="10" d="M1826.3,2835.4h23.9v23.9h-23.9V2835.4z M2448.4,2768.1h23.9v23.9h-23.9V2768.1z
	 M3070,2667.3h23.9v23.9H3070V2667.3z"/>
<text transform="matrix(1 0 0 1 576.3794 3484.0005)" font-family="'FuturaPT-Book'" font-size="55.7897">II</text>
<text transform="matrix(1 0 0 1 1196.1299 3484.0005)" font-family="'FuturaPT-Book'" font-size="55.7897">III</text>
<text transform="matrix(1 0 0 1 1816.592 3484.0005)" font-family="'FuturaPT-Book'" font-size="55.7897">IV</text>
<text transform="matrix(1 0 0 1 3066.1055 3484.0005)" font-family="'FuturaPT-Book'" font-size="55.7897">II</text>
<text transform="matrix(1 0 0 1 2444.3081 3484.0005)" font-family="'FuturaPT-Book'" font-size="55.7897">I</text>
<text transform="matrix(1 0 0 1 3685.853 3484.0005)" font-family="'FuturaPT-Book'" font-size="55.7897">III</text>
<text transform="matrix(0 -1 1 0 56.1411 2421.8376)" font-family="'FuturaPT-Book'" font-size="55.7897">миллионов рублей</text>
<g opacity="0.3">
	<path d="M2148.7,3399.7v164.2"/>
	<path fill="none" stroke="#000000" stroke-width="0.5" stroke-miterlimit="10" d="M2148.7,3399.7v143.5"/>
	<circle cx="2148.7" cy="3542" r="21.5"/>
</g>
<text transform="matrix(1 0 0 1 1917.1606 3647.7703)" font-family="'FuturaPT-Book'" font-size="55.7897">кварталы 2014-2015</text>
<text transform="matrix(1 0 0 1 530.3543 3221.1892)" fill="#EC297B" font-family="'FuturaPT-Book'" font-size="55.7897">+35</text>
<text transform="matrix(1 0 0 1 1144.3252 2846.6013)" fill="#EC297B" font-family="'FuturaPT-Book'" font-size="55.7897">+215</text>
<text transform="matrix(1 0 0 1 1773.9518 2780.6458)" fill="#EC297B" font-family="'FuturaPT-Book'" font-size="55.7897">+45</text>
<text transform="matrix(1 0 0 1 2391.6243 2716.8818)" fill="#EC297B" font-family="'FuturaPT-Book'" font-size="55.7897">+40</text>
<text transform="matrix(1 0 0 1 3013.2803 2597.3335)" fill="#EC297B" font-family="'FuturaPT-Book'" font-size="55.7897">+60</text>
<text transform="matrix(1 0 0 1 3618.9963 2059.3601)" fill="#EC297B" font-family="'FuturaPT-Book'" font-size="55.7897">+340</text>
<circle fill="#F9E600" cx="594.6" cy="3284.5" r="27.9"/>
<circle fill="#F9E600" cx="1216.6" cy="2923.1" r="27.9"/>
<circle fill="#F9E600" cx="1838.3" cy="2847.4" r="27.9"/>
<circle fill="#F9E600" cx="2461.9" cy="2780.4" r="27.9"/>
<circle fill="#F9E600" cx="3081.6" cy="2672.9" r="27.9"/>
<circle fill="#75E9FF" cx="3700.4" cy="2109.4" r="27.9"/>
</svg>
